build/img/icons/car.svg

<svg xmlns="http://www.w3.org/2000/svg" viewBox="0 0 64 64" width="48" height="48"><g fill="currentColor"><path d="M14 14a4 4 0 000-8H9a1 1 0 00-1 1v11h2v-4zm-4-6h4a2 2 0 010 4h-4z"/><path d="M22 57h-5V38a1 1 0 00-1-1h-1V22.574a11 11 0 10-6 0V37H8a1 1 0 00-1 1v19H2a1 1 0 00-1 1v4a1 1 0 001 1h20a1 1 0 001-1v-4a1 1 0 00-1-1zM3 12a9 9 0 119 9 9.01 9.01 0 01-9-9zm8 10.949c.33.03.662.051 1 .051s.67-.021 1-.051V37h-2zM9 39h6v18h-2V44h-2v13H9zm12 22H3v-2h18z"/><path d="M62 17h-2a25.164 25.164 0 00-24.83 20h-4.685a6.955 6.955 0 00-4.95 2.051l-.484.484A6.955 6.955 0 0023 44.485V54a1 1 0 001 1h3.059a9 9 0 0017.882 0H62a1 1 0 001-1V18a1 1 0 00-1-1zM36 61a7 7 0 117-7 7.009 7.009 0 01-7 7zm25-8H44.941a9 9 0 00-17.882 0H25v-8.515a4.971 4.971 0 011.465-3.536l.484-.484A4.971 4.971 0 0130.485 39H36a1 1 0 00.986-.832A23.156 23.156 0 0160 19h1z"/><path d="M36 50a4 4 0 104 4 4 4 0 00-4-4zm0 6a2 2 0 112-2 2 2 0 01-2 2zm17-16h4v2h-4zm4.8-17.98C42.252 25.13 41.015 36.792 41 36.909A1 1 0 0042 38h16a1 1 0 001-1V23a1 1 0 00-1.2-.98zM57 36H43.2c.663-2.633 3.345-9.235 13.8-11.756z"/></g></svg>

<svg xmlns="http://www.w3.org/2000/svg" viewBox="0 0 64 64" width="48" height="48"><g><path d="M14,14a4,4,0,0,0,0-8H9A1,1,0,0,0,8,7V18h2V14ZM10,8h4a2,2,0,0,1,0,4H10Z" fill="currentColor"></path><path d="M22,57H17V38a1,1,0,0,0-1-1H15V22.574a11,11,0,1,0-6,0V37H8a1,1,0,0,0-1,1V57H2a1,1,0,0,0-1,1v4a1,1,0,0,0,1,1H22a1,1,0,0,0,1-1V58A1,1,0,0,0,22,57ZM3,12a9,9,0,1,1,9,9A9.01,9.01,0,0,1,3,12Zm8,10.949c.33.03.662.051,1,.051s.67-.021,1-.051V37H11ZM9,39h6V57H13V44H11V57H9ZM21,61H3V59H21Z" fill="currentColor"></path><path d="M62,17H60A25.164,25.164,0,0,0,35.17,37H30.485a6.955,6.955,0,0,0-4.95,2.051l-.484.484A6.955,6.955,0,0,0,23,44.485V54a1,1,0,0,0,1,1h3.059a9,9,0,0,0,17.882,0H62a1,1,0,0,0,1-1V18A1,1,0,0,0,62,17ZM36,61a7,7,0,1,1,7-7A7.009,7.009,0,0,1,36,61Zm25-8H44.941a9,9,0,0,0-17.882,0H25V44.485a4.971,4.971,0,0,1,1.465-3.536l.484-.484A4.971,4.971,0,0,1,30.485,39H36a1,1,0,0,0,.986-.832A23.156,23.156,0,0,1,60,19h1Z" fill="currentColor"></path><path d="M36,50a4,4,0,1,0,4,4A4,4,0,0,0,36,50Zm0,6a2,2,0,1,1,2-2A2,2,0,0,1,36,56Z" fill="currentColor"></path><rect x="53" y="40" width="4" height="2" fill="currentColor"></rect><path d="M57.8,22.02C42.252,25.13,41.015,36.792,41,36.909A1,1,0,0,0,42,38H58a1,1,0,0,0,1-1V23a1,1,0,0,0-1.2-.98ZM57,36H43.2c.663-2.633,3.345-9.235,13.8-11.756Z" fill="currentColor"></path></g></svg>
